X: 42734
T: White Butterfly
R: reel
M: 4/4
K: Amajor
|:aged cA (f2|f)ff/f/e fece|d3c d/c/BAc|Bcde fefg|
aged cA (f2|f)ff/f/e fece|d3c d/c/BAc|1 B2 B/B/B cBAg:|2 B2 B/B/B cBAF||
EFAB c/B/A (c2|c)cd/c/B cBAc|d3c d/c/BAc|Bcde fecA|
EFAB c/B/A (c2|c)cd/c/B cBAc|d3c d/c/BAc|B2 B/B/B cBAF|
EFAB c/B/A (c2|c)cd/c/B cBAc|d3c d/c/BAc|Bcde fecA|
EFAB c/B/A (c2|c)cd/c/B cBAc|c2 c/c/c d2 d/d/d|e2 e/e/e efge||

